assets/fingerprinted/icons/pdi-neo-purple.svg

<svg width="39" height="39" viewBox="0 0 39 39" fill="none" xmlns="http://www.w3.org/2000/svg">
<path fill-rule="evenodd" clip-rule="evenodd" d="M31.2319 21.2448C31.4485 21.5092 31.7603 22.0391 32.048 22.593C32.3371 23.1494 32.6118 23.7509 32.7502 24.1658C33.2223 25.582 32.8877 27.0733 31.858 28.1079C30.7564 29.2142 29.074 29.4769 27.1229 28.9125C27.0379 28.8879 26.9892 28.878 26.9511 28.8778C26.9205 28.8778 26.8873 28.8846 26.8371 28.9125C26.7816 28.9434 26.7091 28.9982 26.6025 29.0926C26.4967 29.1863 26.3645 29.3132 26.1895 29.4825C24.932 30.6991 23.7567 31.3809 22.1731 31.8104C21.5857 31.9695 20.5299 32.056 19.4768 32.0698C18.4223 32.0835 17.3393 32.0251 16.6962 31.8831C14.8361 31.4719 13.6555 30.8616 12.3956 29.6543L11.6356 28.9257L10.7286 29.0992C8.98496 29.4295 7.62972 29.1149 6.62134 28.098C5.9011 27.3713 5.53783 26.5692 5.55405 25.6164C5.57018 24.6738 5.95666 23.6016 6.68908 22.327C6.87631 22.0012 7.05162 21.6992 7.18307 21.4761C7.24859 21.365 7.30476 21.273 7.34498 21.2068C7.36496 21.174 7.38172 21.146 7.39455 21.1259C7.39796 21.1205 7.39976 21.1143 7.40281 21.1094L8.86166 22.2031C8.83717 22.2531 8.80495 22.3194 8.76419 22.3947C8.68068 22.549 8.56596 22.7514 8.44036 22.9647C8.16846 23.4265 7.91892 23.9502 7.73985 24.417C7.55818 24.8907 7.45777 25.2834 7.45898 25.4958C7.46074 25.7559 7.54549 26.0505 7.69194 26.3203C7.83816 26.5895 8.03933 26.8228 8.25863 26.9696C8.60178 27.1986 8.92418 27.312 9.36227 27.3149C9.81144 27.3176 10.389 27.2057 11.2408 26.9679C14.1475 26.1563 16.2949 25.8645 19.3578 25.8659C22.164 25.8672 24.1727 26.1357 27.1758 26.9101C28.8031 27.3297 29.5251 27.3403 30.1018 27.0422C30.3506 26.9136 30.5222 26.7767 30.6536 26.5995C30.7865 26.4201 30.8874 26.1876 30.9758 25.8543C31.1328 25.262 30.943 24.5695 30.1266 23.1316C29.9517 22.8236 29.7975 22.5365 29.6904 22.322C29.6714 22.2839 29.6553 22.2469 29.6392 22.213L31.1162 21.1044L31.2319 21.2448ZM21.8311 27.9047C19.5964 27.6891 16.5976 27.8113 14.4608 28.2037L13.7917 28.326L14.0313 28.5391C14.6624 29.104 15.8862 29.6885 17.0167 29.9533C17.5813 30.0855 18.4887 30.1485 19.3942 30.14C20.3006 30.1315 21.18 30.0515 21.6907 29.9104C22.3669 29.7233 23.1963 29.3249 23.8087 28.9422C24.1151 28.7507 24.3575 28.5693 24.4977 28.4268C24.5401 28.3835 24.5662 28.3466 24.5836 28.321C24.5761 28.3184 24.5676 28.3156 24.5588 28.3128C24.5098 28.297 24.4439 28.2802 24.3638 28.2615C24.2035 28.2242 23.9894 28.1822 23.7344 28.1409C23.2244 28.0585 22.5551 27.9746 21.8311 27.9047Z" fill="#673EAC"/>
<path d="M17.2397 21.3043C17.445 21.1527 17.6871 21.1002 17.9155 21.2234C18.2294 21.393 18.3187 21.7614 18.279 22.1122C18.2382 22.4714 18.0616 22.8693 17.7668 23.1878C17.5832 23.386 17.4049 23.532 17.215 23.5711C17.0019 23.6146 16.8261 23.5171 16.6764 23.3662C16.5227 23.2111 16.4494 23.0221 16.4616 22.7912C16.4733 22.5729 16.5605 22.3197 16.7044 22.0197C16.8575 21.7009 17.0402 21.452 17.2397 21.3043Z" fill="#673EAC"/>
<path d="M20.4301 21.3324C20.5775 21.1928 20.8015 21.0832 21.0232 21.154C21.0814 21.1726 21.1369 21.2107 21.1818 21.2465C21.23 21.2849 21.2803 21.3339 21.3305 21.3869C21.4309 21.4931 21.5381 21.6274 21.6279 21.7669C21.8293 22.0802 21.9448 22.4259 21.9633 22.7252C21.9809 23.0123 21.9084 23.3199 21.6543 23.4571C21.5895 23.4921 21.5266 23.526 21.4726 23.5479C21.4128 23.572 21.3432 23.59 21.2644 23.576C21.1917 23.5629 21.129 23.5262 21.0744 23.4885C21.0193 23.4503 20.9522 23.3961 20.8728 23.3332C20.6813 23.181 20.5056 22.9357 20.3788 22.6855C20.2528 22.4364 20.1608 22.1554 20.1608 21.9222C20.1608 21.6917 20.2788 21.476 20.4301 21.3324Z" fill="#673EAC"/>
<path d="M20.7175 13.3409C24.8035 13.3434 28.4863 13.4764 30.0109 13.744C30.4644 13.8237 30.8238 13.9602 31.0881 14.1786C31.3566 14.4007 31.5118 14.6968 31.5805 15.0658C31.6066 15.207 31.6138 15.5043 31.6069 15.8522C31.5998 16.2078 31.5775 16.6369 31.5441 17.0533C31.4741 17.9262 31.3761 18.5542 31.1955 19.0623C31.0127 19.5765 30.7488 19.9616 30.3612 20.3527C29.5856 21.1349 28.3591 21.6064 27.0684 21.7471C25.7759 21.8878 24.3909 21.7002 23.2833 21.1341C22.4188 20.6921 21.8797 20.139 21.0281 18.8608C20.5707 18.1741 20.2808 17.7944 20.0154 17.5803C19.7659 17.3795 19.5315 17.3199 19.1529 17.3144C18.7768 17.3089 18.5528 17.3566 18.3533 17.501C18.1425 17.6538 17.9391 17.929 17.6429 18.4329C16.647 20.1262 15.2044 21.3242 13.724 21.6463C12.9165 21.8217 11.8921 21.8786 11.1929 21.7834C9.68478 21.578 8.5193 20.9746 7.72333 19.9644C7.13446 19.2168 6.9832 18.4866 6.92203 16.447C6.89539 15.5585 6.88227 15.0858 6.91047 14.8014C6.92504 14.655 6.9515 14.5441 6.99968 14.4462C7.04684 14.3506 7.11072 14.2769 7.17481 14.2033C7.23866 14.13 7.30365 14.0618 7.38629 14.0051C7.47101 13.9472 7.56732 13.9058 7.68863 13.8746C7.92144 13.8147 8.28126 13.7818 8.90297 13.7308C12.1069 13.4684 16.6254 13.3385 20.7175 13.3409Z" fill="#673EAC"/>
<path d="M9.68774 11.1155C13.7599 5.34948 22.7408 4.71093 27.7557 9.82017C28.2919 10.3665 28.8523 11.0861 29.2443 11.6855C29.4397 11.9843 29.5982 12.2594 29.6904 12.4719C29.7279 12.5584 29.7531 12.644 29.768 12.7197C28.9594 12.5485 28.1325 12.4054 27.2948 12.2885L27.2882 12.2769C26.6972 11.4125 25.531 10.3116 24.5753 9.71774C21.3101 7.68911 16.4278 7.85617 13.3043 10.1043C12.9436 10.3641 12.4374 10.8247 11.9793 11.2922C11.5351 11.7455 11.1538 12.1895 10.9913 12.4521C10.1818 12.5598 9.44678 12.674 8.80384 12.7858C8.80248 12.7613 8.80282 12.7385 8.80549 12.7197C8.81229 12.6719 8.82761 12.6185 8.84679 12.5661C8.88596 12.459 8.95154 12.3226 9.03184 12.1712C9.1934 11.8665 9.42907 11.4818 9.68774 11.1155Z" fill="#673EAC"/>
</svg>

<svg xmlns="http://www.w3.org/2000/svg" width="39" height="39" fill="none" viewBox="0 0 39 39"><path fill="#673eac" fill-rule="evenodd" d="M31.232 21.245c.216.264.528.794.816 1.348.29.556.564 1.158.702 1.573.472 1.416.138 2.907-.892 3.942-1.102 1.106-2.784 1.369-4.735.805a.7.7 0 0 0-.172-.035.2.2 0 0 0-.114.035c-.055.03-.128.085-.235.18-.105.093-.238.22-.413.39-1.257 1.216-2.432 1.898-4.016 2.327-.587.16-1.643.246-2.696.26-1.055.014-2.138-.045-2.78-.187-1.86-.411-3.041-1.021-4.301-2.229l-.76-.728-.907.173c-1.744.33-3.1.016-4.108-1.001-.72-.727-1.083-1.529-1.067-2.482.016-.942.403-2.014 1.135-3.289.187-.326.363-.628.494-.85q.1-.17.162-.27l.05-.081.008-.017 1.459 1.094q-.037.077-.098.192c-.083.154-.198.356-.324.57a10 10 0 0 0-.7 1.452c-.182.474-.282.866-.281 1.079.002.26.086.555.233.824.146.27.347.503.567.65a1.87 1.87 0 0 0 1.103.345c.45.003 1.027-.11 1.879-.347 2.907-.812 5.054-1.104 8.117-1.102 2.806.001 4.815.27 7.818 1.044 1.627.42 2.35.43 2.926.132.249-.128.42-.265.552-.443.133-.179.233-.411.322-.745.157-.592-.033-1.284-.85-2.722a19 19 0 0 1-.436-.81q-.028-.057-.05-.109l1.476-1.109zm-9.4 6.66c-2.236-.216-5.234-.094-7.371.299l-.67.122.24.213c.631.565 1.855 1.15 2.986 1.414.564.133 1.472.195 2.377.187.907-.009 1.786-.088 2.297-.23.676-.187 1.505-.585 2.118-.968.306-.191.549-.373.689-.515a1 1 0 0 0 .086-.106l-.025-.008a3 3 0 0 0-.195-.051 10 10 0 0 0-.63-.121 32 32 0 0 0-1.903-.236" clip-rule="evenodd"/><path fill="#673eac" d="M17.24 21.304c.205-.151.447-.204.676-.08.313.169.403.537.363.888a1.96 1.96 0 0 1-.512 1.076c-.184.198-.362.344-.552.383-.213.044-.389-.054-.539-.205a.72.72 0 0 1-.214-.575c.011-.218.099-.471.242-.771.154-.32.336-.568.536-.716m3.19.028c.148-.14.372-.249.593-.178a.5.5 0 0 1 .159.093q.072.059.149.14c.1.106.207.24.297.38.201.313.317.659.335.958.018.287-.055.595-.309.732a2 2 0 0 1-.181.09.37.37 0 0 1-.209.029.5.5 0 0 1-.19-.088q-.082-.059-.201-.155c-.192-.152-.367-.397-.494-.647-.126-.25-.218-.53-.218-.764 0-.23.118-.446.27-.59"/><path fill="#673eac" d="M20.718 13.34c4.085.003 7.768.136 9.293.404.453.08.813.216 1.077.435.269.222.424.518.492.887.027.141.034.438.027.786a21 21 0 0 1-.063 1.201c-.07.873-.168 1.501-.349 2.01-.182.514-.446.899-.834 1.29-.775.782-2.002 1.253-3.293 1.394-1.292.14-2.677-.047-3.785-.613-.864-.442-1.403-.995-2.255-2.273-.457-.687-.747-1.067-1.013-1.28-.25-.201-.483-.261-.862-.267-.376-.005-.6.043-.8.187-.21.153-.414.428-.71.932-.996 1.693-2.439 2.891-3.919 3.213-.808.176-1.832.233-2.531.137-1.508-.205-2.674-.808-3.47-1.819-.589-.747-.74-1.477-.801-3.517-.027-.888-.04-1.361-.012-1.646.015-.146.042-.257.09-.355.047-.095.11-.17.175-.243s.129-.141.211-.198a.9.9 0 0 1 .303-.13c.232-.06.592-.093 1.214-.144 3.204-.263 7.722-.393 11.815-.39m-11.03-2.225C13.76 5.349 22.74 4.71 27.756 9.82a13 13 0 0 1 1.488 1.865c.196.3.354.574.446.787.038.086.063.172.078.248a36 36 0 0 0-2.473-.431l-.007-.012c-.59-.864-1.757-1.965-2.713-2.56-3.265-2.028-8.147-1.86-11.27.387-.361.26-.868.72-1.326 1.188-.444.454-.825.898-.988 1.16a56 56 0 0 0-2.187.334.4.4 0 0 1 .001-.066 1 1 0 0 1 .042-.154c.039-.107.105-.243.185-.395.161-.304.397-.69.656-1.055"/></svg>
